icons/svg/shields/h_white_gray_square_big_shield.svg

<?xml version="1.0" encoding="UTF-8" standalone="no"?>
<!-- Generator: Adobe Illustrator 16.0.4, SVG Export Plug-In . SVG Version: 6.00 Build 0)  -->

<svg
   xmlns:dc="http://purl.org/dc/elements/1.1/"
   xmlns:cc="http://creativecommons.org/ns#"
   xmlns:rdf="http://www.w3.org/1999/02/22-rdf-syntax-ns#"
   xmlns:svg="http://www.w3.org/2000/svg"
   xmlns="http://www.w3.org/2000/svg"
   xmlns:sodipodi="http://sodipodi.sourceforge.net/DTD/sodipodi-0.dtd"
   xmlns:inkscape="http://www.inkscape.org/namespaces/inkscape"
   version="1.1"
   id="Слой_1"
   x="0px"
   y="0px"
   width="22"
   height="22"
   viewBox="0 0 21.999999 22"
   enable-background="new 0 0 17.113 17.143"
   xml:space="preserve"
   inkscape:version="0.91 r"
   sodipodi:docname="h_white_gray_square_shield2.svg"><metadata
     id="metadata13"><rdf:RDF><cc:Work
         rdf:about=""><dc:format>image/svg+xml</dc:format><dc:type
           rdf:resource="http://purl.org/dc/dcmitype/StillImage" /><dc:title /></cc:Work></rdf:RDF></metadata><defs
     id="defs11" /><sodipodi:namedview
     pagecolor="#ffffff"
     bordercolor="#666666"
     borderopacity="1"
     objecttolerance="10"
     gridtolerance="10"
     guidetolerance="10"
     inkscape:pageopacity="0"
     inkscape:pageshadow="2"
     inkscape:window-width="1920"
     inkscape:window-height="1006"
     id="namedview9"
     showgrid="true"
     inkscape:zoom="22.627417"
     inkscape:cx="-5.7622782"
     inkscape:cy="11.444069"
     inkscape:window-x="1920"
     inkscape:window-y="0"
     inkscape:window-maximized="1"
     inkscape:current-layer="Слой_1"
     fit-margin-top="0"
     fit-margin-left="0"
     fit-margin-right="0"
     fit-margin-bottom="0"
     inkscape:showpageshadow="false"
     inkscape:snap-object-midpoints="true"
     inkscape:snap-center="true"
     inkscape:snap-page="true"><inkscape:grid
       type="xygrid"
       id="grid2991"
       empspacing="5"
       visible="true"
       enabled="true"
       snapvisiblegridlinesonly="true"
       originx="-1.3381215e-05px"
       originy="0.0064353387px" /></sodipodi:namedview><g
     id="g2117"
     transform="matrix(0.08631273,0,0,0.08631273,32.3743,0.2407327)"
     style="fill:#000000"><g
       id="g2119"
       style="fill:#000000"><g
         id="g2121"
         style="fill:#000000"><path
           inkscape:connector-curvature="0"
           id="path2125"
           style="fill:#000000;stroke:none"
           d="" /></g><g
         id="g2127"
         style="fill:#000000"><path
           inkscape:connector-curvature="0"
           id="path2131"
           style="fill:#000000;stroke:none"
           d="" /></g></g></g><g
     transform="matrix(0.06635536,0,0,0.06635536,28.23946,-0.5870373)"
     id="g1327-1"
     style="fill:#ffffff;stroke:none" /><g
     transform="matrix(0.0321593,0,0,0.03218509,0.49505866,2.8157972)"
     id="g1327-2"
     style="opacity:0.852;fill:#ffffff;fill-opacity:1;stroke:none"><path
       inkscape:connector-curvature="0"
       d="M 209.46697,-65.053751 C 97.426676,-61.596302 7.2359269,14.756444 7.3032039,126.51058 L 7.4487175,368.22412 C 7.5817173,589.15105 210.10771,573.52713 215.15011,573.52713 l 243.49117,0 c 110.72206,0 187.24695,-62.49207 186.87425,-207.24463 L 644.89817,126.51058 C 644.54335,-11.297038 539.18475,-59.700408 442.17835,-64.984789 c 0,0 -232.87454,-0.222123 -232.71138,-0.06896 z"
       style="fill:#ffffff;fill-opacity:1;stroke:none"
       id="path1329-2"
       sodipodi:nodetypes="csssssssc" /></g><path
     style="fill:#bababa;fill-opacity:1;stroke:none;color:#000000;clip-rule:nonzero;display:inline;overflow:visible;visibility:visible;opacity:1;isolation:auto;mix-blend-mode:normal;color-interpolation:sRGB;color-interpolation-filters:linearRGB;solid-color:#000000;solid-opacity:1;fill-rule:nonzero;stroke-width:1;stroke-linecap:butt;stroke-linejoin:miter;stroke-miterlimit:4;stroke-dasharray:none;stroke-dashoffset:0;stroke-opacity:1;marker:none;filter-blend-mode:normal;filter-gaussianBlur-deviation:0;color-rendering:auto;image-rendering:auto;shape-rendering:auto;text-rendering:auto;enable-background:accumulate"
     d="M 6.9464098,-0.03944972 C 3.0829276,0.07986896 -0.00235155,2.7067812 -3.2199167e-5,6.5634867 l 0,8.3586303 C 0.00460894,22.546444 6.9633695,22.021228 7.1372461,22.021228 l 8.3967989,0 c 3.818025,0 6.463119,-2.179943 6.450267,-7.175445 l 0,-8.2822963 c -0.01223,-4.7558276 -3.63954,-6.42056909 -6.984609,-6.60293642 0,0 -8.0589188,-0.0052885 -8.0532932,0 z m 0.2384185,0.68522027 c -0.00529,-0.004959 7.5761657,0 7.5761657,0 3.143396,0.17137239 6.526341,1.72258725 6.537808,6.19168805 l 0.03846,7.7684534 c 0.01206,4.694325 -2.488654,6.765772 -6.076316,6.730096 l -7.8565261,-0.07813 c -0.1621521,-0.0016 -6.75308885,0.589605 -6.7573961,-6.575056 l 0,-7.8453684 C 0.64484007,3.2132722 3.5542734,0.75789582 7.1848283,0.64577055 Z"
     id="path1329-6"
     inkscape:connector-curvature="0"
     sodipodi:nodetypes="cccssccccccccssccc" /></svg>

<svg width="22" height="22" viewBox="0 0 22 22" fill="none" xmlns="http://www.w3.org/2000/svg">
<g clip-path="url(#clip0)">
<g opacity="0.852">
<path opacity="0.852" d="M7.23137 0.72201C3.62824 0.833288 0.727765 3.29071 0.729928 6.88752L0.734608 14.6671C0.738885 21.7776 7.25198 21.2748 7.41414 21.2748H15.2446C18.8054 21.2748 21.2664 19.2635 21.2544 14.6046L21.2345 6.88752C21.2231 2.45217 17.8349 0.894307 14.7152 0.724229C14.7152 0.724229 7.22613 0.71708 7.23137 0.72201V0.72201Z" fill="white"/>
</g>
<path d="M6.94641 -0.0394586C3.08293 0.07986 -0.00234856 2.70677 -2.92108e-05 6.56348V14.9221C0.00461193 22.5464 6.96337 22.0212 7.13725 22.0212H15.534C19.3521 22.0212 21.9972 19.8413 21.9843 14.8458V6.56348C21.9721 1.80765 18.3448 0.142909 14.9997 -0.0394586C14.9997 -0.0394586 6.94079 -0.0447471 6.94641 -0.0394586V-0.0394586ZM7.18483 0.645762C7.17954 0.640803 14.761 0.645762 14.761 0.645762C17.9044 0.817134 21.2873 2.36835 21.2988 6.83745L21.3373 14.6059C21.3493 19.3002 18.8486 21.3717 15.2609 21.336L7.40442 21.2579C7.24227 21.2563 0.651334 21.8475 0.647027 14.6828V6.83744C0.644843 3.21326 3.55428 0.757887 7.18483 0.645762V0.645762Z" fill="#BABABA"/>
</g>
<defs>
<clipPath id="clip0">
<path d="M0 0H22V22H0V0Z" fill="white"/>
</clipPath>
</defs>
</svg>
